assets/icons/24px/outline/bell-24px.svg

<svg width="24" height="24" viewBox="0 0 24 24" fill="none" xmlns="http://www.w3.org/2000/svg">
<path d="M19.238 13.6824L18.3301 14.1015L19.238 13.6824ZM19.8667 15.3267L20.8629 15.2401L19.8667 15.3267ZM18.5518 17.3817L18.8906 18.3226L18.5518 17.3817ZM4.76195 13.6824L3.85399 13.2634L4.76195 13.6824ZM4.13333 15.3267L3.13709 15.2401L4.13333 15.3267ZM5.44816 17.3817L5.10933 18.3225L5.44816 17.3817ZM5.99998 10.7756L6.99998 10.7756L5.99998 10.7756ZM18.094 11.2037L17.1861 11.6228L18.094 11.2037ZM17 8.50001V10.7756H19V8.50001H17ZM6.99998 10.7756L6.99999 8.49999L4.99999 8.49999L4.99998 10.7756L6.99998 10.7756ZM5.66991 14.1015L6.81391 11.6228L4.99798 10.7847L3.85399 13.2634L5.66991 14.1015ZM17.1861 11.6228L18.3301 14.1015L20.146 13.2634L19.002 10.7847L17.1861 11.6228ZM16.7954 16.5H12V18.5H16.7954V16.5ZM12 16.5H7.20458V18.5H12V16.5ZM18.3301 14.1015C18.5342 14.5436 18.6704 14.8395 18.7617 15.0687C18.8537 15.2994 18.8681 15.3863 18.8704 15.4134L20.8629 15.2401C20.835 14.9193 20.7345 14.6162 20.6195 14.3278C20.5038 14.0379 20.3408 13.6855 20.146 13.2634L18.3301 14.1015ZM16.7954 18.5C17.2604 18.5 17.6486 18.5003 17.9603 18.4838C18.2704 18.4674 18.5877 18.4316 18.8906 18.3226L18.213 16.4409C18.1874 16.4501 18.1025 16.4735 17.8545 16.4866C17.6082 16.4997 17.2824 16.5 16.7954 16.5V18.5ZM18.8704 15.4134C18.9097 15.8653 18.6398 16.2871 18.213 16.4409L18.8906 18.3226C20.1712 17.8614 20.9808 16.596 20.8629 15.2401L18.8704 15.4134ZM3.85399 13.2634C3.65915 13.6855 3.49617 14.0379 3.38052 14.3278C3.26551 14.6162 3.16498 14.9193 3.13709 15.2401L5.12957 15.4134C5.13192 15.3863 5.14624 15.2994 5.23825 15.0687C5.32963 14.8395 5.46584 14.5436 5.66991 14.1015L3.85399 13.2634ZM7.20458 16.5C6.71759 16.5 6.39184 16.4997 6.14549 16.4866C5.89744 16.4735 5.81254 16.4501 5.78698 16.4408L5.10933 18.3225C5.41227 18.4316 5.72961 18.4674 6.03966 18.4838C6.35141 18.5003 6.73961 18.5 7.20458 18.5V16.5ZM3.13709 15.2401C3.01919 16.596 3.82882 17.8614 5.10933 18.3225L5.78698 16.4408C5.36015 16.2871 5.09027 15.8653 5.12957 15.4134L3.13709 15.2401ZM4.99998 10.7756C4.99998 10.7787 4.9993 10.7818 4.99798 10.7847L6.81391 11.6228C6.93649 11.3572 6.99998 11.0681 6.99998 10.7756L4.99998 10.7756ZM17 10.7756C17 11.0681 17.0635 11.3572 17.1861 11.6228L19.002 10.7847C19.0007 10.7818 19 10.7787 19 10.7756H17ZM12 3.5C14.7614 3.5 17 5.73858 17 8.50001H19C19 4.63401 15.866 1.5 12 1.5V3.5ZM12 1.5C8.13401 1.5 5 4.634 4.99999 8.49999L6.99999 8.49999C7 5.73857 9.23857 3.5 12 3.5V1.5Z" fill="white"/>
<path d="M9.1644 20.0136C8.61963 19.9228 8.1044 20.2908 8.01361 20.8356C7.92281 21.3804 8.29083 21.8956 8.8356 21.9864L9.1644 20.0136ZM15.1644 21.9864C15.7092 21.8956 16.0772 21.3804 15.9864 20.8356C15.8956 20.2908 15.3804 19.9228 14.8356 20.0136L15.1644 21.9864ZM8.8356 21.9864L9.53402 22.1028L9.86281 20.13L9.1644 20.0136L8.8356 21.9864ZM14.466 22.1028L15.1644 21.9864L14.8356 20.0136L14.1372 20.13L14.466 22.1028ZM9.53402 22.1028C11.1667 22.3749 12.8333 22.3749 14.466 22.1028L14.1372 20.13C12.7222 20.3658 11.2778 20.3658 9.86281 20.13L9.53402 22.1028Z" fill="white"/>
</svg>

<svg width="24" height="24" fill="none" xmlns="http://www.w3.org/2000/svg"><path d="M19.238 13.682l-.908.42.908-.42zm.629 1.645l.996-.087-.996.087zm-1.315 2.055l.339.94-.34-.94zm-13.79-3.7l-.908-.419.908.42zm-.629 1.645l-.996-.087.996.087zm1.315 2.055l-.339.94.34-.94zM6 10.776h1-1zm12.094.428l-.908.419.908-.42zM17 8.5v2.276h2V8.5h-2zM7 10.776V8.5H5v2.276h2zM5.67 14.1l1.144-2.478-1.816-.838-1.144 2.478 1.816.838zm11.516-2.478l1.144 2.479 1.816-.839-1.144-2.478-1.816.838zm-.39 4.877H12v2h4.795v-2zM12 16.5H7.205v2H12v-2zm6.33-2.399c.204.443.34.738.432.968.092.23.106.317.108.344l1.993-.173a3.23 3.23 0 0 0-.244-.912c-.115-.29-.278-.643-.473-1.065l-1.816.838zM16.795 18.5c.465 0 .854 0 1.165-.016a3.23 3.23 0 0 0 .93-.161l-.677-1.882c-.026.01-.11.033-.358.046-.247.013-.573.013-1.06.013v2zm2.075-3.087a1 1 0 0 1-.657 1.028l.678 1.882a3 3 0 0 0 1.972-3.083l-1.993.173zm-15.016-2.15c-.195.422-.358.775-.473 1.065a3.229 3.229 0 0 0-.244.912l1.993.173c.002-.027.016-.114.108-.344.092-.23.228-.525.432-.968l-1.816-.838zm3.35 3.237c-.486 0-.812 0-1.059-.013-.248-.013-.332-.037-.358-.046l-.678 1.882c.303.109.62.144.93.16.312.017.7.017 1.166.017v-2zm-4.067-1.26a3 3 0 0 0 1.972 3.083l.678-1.882a1 1 0 0 1-.657-1.028l-1.993-.173zM5 10.776c0 .003 0 .006-.002.009l1.816.838c.122-.266.186-.555.186-.847H5zm12 0c0 .292.064.581.186.847l1.816-.838a.022.022 0 0 1-.002-.01h-2zM12 3.5a5 5 0 0 1 5 5h2a7 7 0 0 0-7-7v2zm0-2a7 7 0 0 0-7 7h2a5 5 0 0 1 5-5v-2zM9.164 20.014a1 1 0 1 0-.328 1.972l.328-1.972zm6 1.972a1 1 0 1 0-.328-1.972l.328 1.972zm-6.328 0l.698.117.329-1.973-.699-.116-.328 1.972zm5.63.117l.698-.117-.328-1.972-.699.116.329 1.973zm-4.932 0c1.633.272 3.3.272 4.932 0l-.329-1.973c-1.415.236-2.86.236-4.274 0l-.329 1.973z" fill="#fff"/></svg>
